symbols/web/warning/materialsymbolsoutlined/warning_wght600_48px.svg

<svg xmlns="http://www.w3.org/2000/svg" height="48" width="48"><path d="M24.05 24.6ZM1.4 42.35 24 3.25l22.6 39.1ZM22.7 30.6h3V19.65h-3Zm1.5 5.5q.65 0 1.125-.475t.475-1.175q0-.65-.475-1.1-.475-.45-1.125-.45t-1.125.475q-.475.475-.475 1.125t.475 1.125q.475.475 1.125.475ZM7.75 38.7h32.5L24 10.6Z"/></svg>

<svg xmlns="http://www.w3.org/2000/svg" height="48" width="48"><path d="M24.05 24.6ZM1.4 42.35 24 3.25 46.6 42.35ZM22.7 30.6H25.7V19.65H22.7ZM24.2 36.1Q24.85 36.1 25.325 35.625Q25.8 35.15 25.8 34.45Q25.8 33.8 25.325 33.35Q24.85 32.9 24.2 32.9Q23.55 32.9 23.075 33.375Q22.6 33.85 22.6 34.5Q22.6 35.15 23.075 35.625Q23.55 36.1 24.2 36.1ZM7.75 38.7H40.25L24 10.6Z"/></svg>
